!!!OTL: ICH DANKE GOTT
!!!ARE: Europa, Mitteleuropa, Deutschland
!!!SCT: F0363
!!!YEM: Copyright 1995, estate of Helmut Schaffrath.
**kern
*ICvox
*Ivox
*M6/4
*k[b-]
*F:
{4c
=1
2f
4f
2cc
4cc
=2
2dd
4dd
2cc}
{4cc
=3
2ff
4cc
2dd
4a
=4
2.cc
2.cc
=5
2.a
2r}
{4a
=6
2g
4g
2b-
4b-
=7
2a
4a
2dd}
{4dd
=8
2cc
4f
2b-
4g
=9
2f
4c
2.g
=10
[2.f
2f]}
==
!!!AGN: Jugend - Lied, religioes
!!!ONB: ESAC (Essen Associative Code) Database: FINK
!!!AMT: compound duple
!!!AIN: vox
!!!EED: Helmut Schaffrath
!!!EEV: 1.0
*-
